krita/pics/misc-dark/dark_ox16-action-object-group-calligra.svg

<?xml version="1.0" encoding="UTF-8" standalone="no"?>
<!-- Created with Inkscape (http://www.inkscape.org/) -->

<svg
   xmlns:dc="http://purl.org/dc/elements/1.1/"
   xmlns:cc="http://creativecommons.org/ns#"
   xmlns:rdf="http://www.w3.org/1999/02/22-rdf-syntax-ns#"
   xmlns:svg="http://www.w3.org/2000/svg"
   xmlns="http://www.w3.org/2000/svg"
   xmlns:sodipodi="http://sodipodi.sourceforge.net/DTD/sodipodi-0.dtd"
   xmlns:inkscape="http://www.inkscape.org/namespaces/inkscape"
   width="32"
   height="32"
   viewBox="0 0 32 32.000001"
   id="svg2"
   version="1.1"
   inkscape:version="0.92.1 r15371"
   sodipodi:docname="dark_ox16-action-object-group-calligra.svg"
   inkscape:export-filename="C:\dribbble\krita icons\Collaborate\1_flat\other\ox16-action-object-group-calligra.png"
   inkscape:export-xdpi="45"
   inkscape:export-ydpi="45">
  <defs
     id="defs4">
    <filter
       style="color-interpolation-filters:sRGB;"
       inkscape:label="Drop Shadow"
       id="filter4429">
      <feFlood
         flood-opacity="0.501961"
         flood-color="rgb(0,0,0)"
         result="flood"
         id="feFlood4431" />
      <feComposite
         in="flood"
         in2="SourceGraphic"
         operator="in"
         result="composite1"
         id="feComposite4433" />
      <feGaussianBlur
         in="composite1"
         stdDeviation="0"
         result="blur"
         id="feGaussianBlur4435" />
      <feOffset
         dx="0"
         dy="-2"
         result="offset"
         id="feOffset4437" />
      <feComposite
         in="SourceGraphic"
         in2="offset"
         operator="over"
         result="composite2"
         id="feComposite4439" />
    </filter>
    <filter
       style="color-interpolation-filters:sRGB;"
       inkscape:label="Drop Shadow"
       id="filter4326">
      <feFlood
         flood-opacity="0.501961"
         flood-color="rgb(0,0,0)"
         result="flood"
         id="feFlood4328" />
      <feComposite
         in="flood"
         in2="SourceGraphic"
         operator="in"
         result="composite1"
         id="feComposite4330" />
      <feGaussianBlur
         in="composite1"
         stdDeviation="0"
         result="blur"
         id="feGaussianBlur4332" />
      <feOffset
         dx="0"
         dy="-2"
         result="offset"
         id="feOffset4334" />
      <feComposite
         in="SourceGraphic"
         in2="offset"
         operator="over"
         result="composite2"
         id="feComposite4336" />
    </filter>
  </defs>
  <sodipodi:namedview
     id="base"
     pagecolor="#474747"
     bordercolor="#666666"
     borderopacity="1.0"
     inkscape:pageopacity="0"
     inkscape:pageshadow="2"
     inkscape:zoom="8"
     inkscape:cx="-13.365816"
     inkscape:cy="12.016621"
     inkscape:document-units="px"
     inkscape:current-layer="layer3"
     showgrid="false"
     units="px"
     inkscape:showpageshadow="false"
     showborder="true"
     inkscape:window-width="1884"
     inkscape:window-height="1051"
     inkscape:window-x="0"
     inkscape:window-y="0"
     inkscape:window-maximized="1"
     objecttolerance="20">
    <inkscape:grid
       type="xygrid"
       id="grid3336"
       dotted="false"
       empspacing="1"
       snapvisiblegridlinesonly="true"
       enabled="true"
       visible="true"
       empcolor="#aaaaff"
       empopacity="0.25098039"
       color="#7878ff"
       opacity="0.1254902"
       spacingx="2"
       spacingy="2.0000001" />
  </sodipodi:namedview>
  <metadata
     id="metadata7">
    <rdf:RDF>
      <cc:Work
         rdf:about="">
        <dc:format>image/svg+xml</dc:format>
        <dc:type
           rdf:resource="http://purl.org/dc/dcmitype/StillImage" />
        <dc:title></dc:title>
        <dc:creator>
          <cc:Agent>
            <dc:title>Timothée Giet</dc:title>
          </cc:Agent>
        </dc:creator>
        <dc:date>2015</dc:date>
        <dc:description>Based on Breeze icons</dc:description>
        <cc:license
           rdf:resource="http://creativecommons.org/licenses/by-sa/4.0/" />
      </cc:Work>
      <cc:License
         rdf:about="http://creativecommons.org/licenses/by-sa/4.0/">
        <cc:permits
           rdf:resource="http://creativecommons.org/ns#Reproduction" />
        <cc:permits
           rdf:resource="http://creativecommons.org/ns#Distribution" />
        <cc:requires
           rdf:resource="http://creativecommons.org/ns#Notice" />
        <cc:requires
           rdf:resource="http://creativecommons.org/ns#Attribution" />
        <cc:permits
           rdf:resource="http://creativecommons.org/ns#DerivativeWorks" />
        <cc:requires
           rdf:resource="http://creativecommons.org/ns#ShareAlike" />
      </cc:License>
    </rdf:RDF>
  </metadata>
  <g
     inkscape:groupmode="layer"
     id="layer3"
     inkscape:label="Layer 3"
     style="display:inline">
    <path
       style="color:#000000;font-style:normal;font-variant:normal;font-weight:normal;font-stretch:normal;font-size:medium;line-height:normal;font-family:sans-serif;text-indent:0;text-align:start;text-decoration:none;text-decoration-line:none;text-decoration-style:solid;text-decoration-color:#000000;letter-spacing:normal;word-spacing:normal;text-transform:none;direction:ltr;block-progression:tb;writing-mode:lr-tb;baseline-shift:baseline;text-anchor:start;white-space:normal;clip-rule:nonzero;display:inline;overflow:visible;visibility:visible;opacity:1;isolation:auto;mix-blend-mode:normal;color-interpolation:sRGB;color-interpolation-filters:linearRGB;solid-color:#000000;solid-opacity:1;fill:#373737;fill-opacity:1;fill-rule:nonzero;stroke:none;stroke-width:2;stroke-linecap:square;stroke-linejoin:miter;stroke-miterlimit:4;stroke-dasharray:none;stroke-dashoffset:1;stroke-opacity:1;color-rendering:auto;image-rendering:auto;shape-rendering:auto;text-rendering:auto;enable-background:accumulate"
       d="m 12,12 0,16 16,0 0,-16 z"
       id="rect4852-5-0"
       inkscape:connector-curvature="0"
       sodipodi:nodetypes="ccccc" />
    <path
       style="opacity:1;fill:#373737;fill-opacity:1;stroke:none;stroke-width:2;stroke-linecap:square;stroke-linejoin:miter;stroke-miterlimit:4;stroke-dasharray:none;stroke-dashoffset:1;stroke-opacity:1"
       d="m 8,8 0,2 0,14 2,0 0,-14 14,0 0,-2 -14,0 z"
       id="rect5234"
       inkscape:connector-curvature="0"
       sodipodi:nodetypes="ccccccccc" />
    <path
       inkscape:connector-curvature="0"
       style="display:inline;opacity:1;fill:#373737;fill-opacity:1;stroke:none;stroke-width:2;stroke-linecap:square;stroke-linejoin:miter;stroke-miterlimit:4;stroke-dasharray:none;stroke-dashoffset:1;stroke-opacity:1"
       d="m 4,3.9999999 0,2 L 4,20 6,20 6,5.9999999 l 14,0 0,-2 -14,0 z"
       id="rect5234-8"
       sodipodi:nodetypes="ccccccccc" />
    <path
       inkscape:connector-curvature="0"
       style="display:inline;opacity:1;fill:#373737;fill-opacity:1;stroke:none;stroke-width:2;stroke-linecap:square;stroke-linejoin:miter;stroke-miterlimit:4;stroke-dasharray:none;stroke-dashoffset:1;stroke-opacity:1"
       d="m 0,-1e-7 0,2 L 0,6 2,6 2,1.9999999 l 4,0 0,-2 -4,0 z"
       id="rect5234-8-1"
       sodipodi:nodetypes="ccccccccc" />
    <path
       inkscape:connector-curvature="0"
       style="display:inline;opacity:1;fill:#373737;fill-opacity:1;stroke:none;stroke-width:2;stroke-linecap:square;stroke-linejoin:miter;stroke-miterlimit:4;stroke-dasharray:none;stroke-dashoffset:1;stroke-opacity:1"
       d="m 32,0 0,2 0,4.0000001 -2,0 L 30,2 26,2 26,0 30,0 Z"
       id="rect5234-8-1-9"
       sodipodi:nodetypes="ccccccccc" />
    <path
       inkscape:connector-curvature="0"
       style="display:inline;opacity:1;fill:#373737;fill-opacity:1;stroke:none;stroke-width:2;stroke-linecap:square;stroke-linejoin:miter;stroke-miterlimit:4;stroke-dasharray:none;stroke-dashoffset:1;stroke-opacity:1"
       d="m 0,32 0,-2 0,-4 2,0 0,4 4,0 0,2 -4,0 z"
       id="rect5234-8-1-1"
       sodipodi:nodetypes="ccccccccc" />
    <path
       inkscape:connector-curvature="0"
       style="display:inline;opacity:1;fill:#373737;fill-opacity:1;stroke:none;stroke-width:2;stroke-linecap:square;stroke-linejoin:miter;stroke-miterlimit:4;stroke-dasharray:none;stroke-dashoffset:1;stroke-opacity:1"
       d="m 32,32 0,-2 0,-4 -2,0 0,4 -4,0 0,2 4,0 z"
       id="rect5234-8-1-9-9"
       sodipodi:nodetypes="ccccccccc" />
  </g>
</svg>

<!--Created with Inkscape (http://www.inkscape.org/)--><svg xmlns:dc="http://purl.org/dc/elements/1.1/" xmlns:cc="http://creativecommons.org/ns#" xmlns:rdf="http://www.w3.org/1999/02/22-rdf-syntax-ns#" xmlns="http://www.w3.org/2000/svg" xmlns:sodipodi="http://sodipodi.sourceforge.net/DTD/sodipodi-0.dtd" xmlns:inkscape="http://www.inkscape.org/namespaces/inkscape" width="32" height="32" viewBox="0 0 32 32.000001" id="svg2" version="1.1" inkscape:version="0.92.1 r15371" sodipodi:docname="dark_ox16-action-object-group-calligra.svg" inkscape:export-filename="C:\dribbble\krita icons\Collaborate\1_flat\other\ox16-action-object-group-calligra.png" inkscape:export-xdpi="45" inkscape:export-ydpi="45"><defs id="defs4"><filter style="color-interpolation-filters:sRGB" inkscape:label="Drop Shadow" id="filter4429"><feFlood flood-opacity="0.501961" flood-color="#000" result="flood" id="feFlood4431"/><feComposite in="flood" in2="SourceGraphic" operator="in" result="composite1" id="feComposite4433"/><feGaussianBlur in="composite1" stdDeviation="0" result="blur" id="feGaussianBlur4435"/><feOffset dx="0" dy="-2" result="offset" id="feOffset4437"/><feComposite in="SourceGraphic" in2="offset" operator="over" result="composite2" id="feComposite4439"/></filter><filter style="color-interpolation-filters:sRGB" inkscape:label="Drop Shadow" id="filter4326"><feFlood flood-opacity="0.501961" flood-color="#000" result="flood" id="feFlood4328"/><feComposite in="flood" in2="SourceGraphic" operator="in" result="composite1" id="feComposite4330"/><feGaussianBlur in="composite1" stdDeviation="0" result="blur" id="feGaussianBlur4332"/><feOffset dx="0" dy="-2" result="offset" id="feOffset4334"/><feComposite in="SourceGraphic" in2="offset" operator="over" result="composite2" id="feComposite4336"/></filter></defs><sodipodi:namedview id="base" pagecolor="#474747" bordercolor="#666666" borderopacity="1.0" inkscape:pageopacity="0" inkscape:pageshadow="2" inkscape:zoom="8" inkscape:cx="-13.365816" inkscape:cy="12.016621" inkscape:document-units="px" inkscape:current-layer="layer3" showgrid="false" units="px" inkscape:showpageshadow="false" showborder="true" inkscape:window-width="1884" inkscape:window-height="1051" inkscape:window-x="0" inkscape:window-y="0" inkscape:window-maximized="1" objecttolerance="20"><inkscape:grid type="xygrid" id="grid3336" dotted="false" empspacing="1" snapvisiblegridlinesonly="true" enabled="true" visible="true" empcolor="#aaaaff" empopacity="0.25098039" color="#7878ff" opacity="0.1254902" spacingx="2" spacingy="2.0000001"/></sodipodi:namedview><metadata id="metadata7"><rdf:RDF><cc:Work><dc:format>image/svg+xml</dc:format><dc:type rdf:resource="http://purl.org/dc/dcmitype/StillImage"/><dc:title/><dc:creator><cc:Agent><dc:title>Timothée Giet</dc:title></cc:Agent></dc:creator><dc:date>2015</dc:date><dc:description>Based on Breeze icons</dc:description><cc:license rdf:resource="http://creativecommons.org/licenses/by-sa/4.0/"/></cc:Work><cc:License rdf:about="http://creativecommons.org/licenses/by-sa/4.0/"><cc:permits rdf:resource="http://creativecommons.org/ns#Reproduction"/><cc:permits rdf:resource="http://creativecommons.org/ns#Distribution"/><cc:requires rdf:resource="http://creativecommons.org/ns#Notice"/><cc:requires rdf:resource="http://creativecommons.org/ns#Attribution"/><cc:permits rdf:resource="http://creativecommons.org/ns#DerivativeWorks"/><cc:requires rdf:resource="http://creativecommons.org/ns#ShareAlike"/></cc:License></rdf:RDF></metadata><g inkscape:groupmode="layer" id="layer3" inkscape:label="Layer 3" style="display:inline"><path style="color:#000;font-style:normal;font-variant:normal;font-weight:400;font-stretch:normal;font-size:medium;line-height:normal;font-family:sans-serif;text-indent:0;text-align:start;text-decoration:none;text-decoration-line:none;text-decoration-style:solid;text-decoration-color:#000;letter-spacing:normal;word-spacing:normal;text-transform:none;direction:ltr;block-progression:tb;writing-mode:lr-tb;baseline-shift:baseline;text-anchor:start;white-space:normal;clip-rule:nonzero;display:inline;overflow:visible;visibility:visible;opacity:1;isolation:auto;mix-blend-mode:normal;color-interpolation:sRGB;color-interpolation-filters:linearRGB;solid-color:#000;solid-opacity:1;fill:#373737;fill-opacity:1;fill-rule:nonzero;stroke:none;stroke-width:2;stroke-linecap:square;stroke-linejoin:miter;stroke-miterlimit:4;stroke-dasharray:none;stroke-dashoffset:1;stroke-opacity:1;color-rendering:auto;image-rendering:auto;shape-rendering:auto;text-rendering:auto;enable-background:accumulate" d="M12 12v16h16V12z" id="rect4852-5-0" inkscape:connector-curvature="0" sodipodi:nodetypes="ccccc"/><path style="opacity:1;fill:#373737;fill-opacity:1;stroke:none;stroke-width:2;stroke-linecap:square;stroke-linejoin:miter;stroke-miterlimit:4;stroke-dasharray:none;stroke-dashoffset:1;stroke-opacity:1" d="M8 8v16h2V10h14V8H10z" id="rect5234" inkscape:connector-curvature="0" sodipodi:nodetypes="ccccccccc"/><path inkscape:connector-curvature="0" style="display:inline;opacity:1;fill:#373737;fill-opacity:1;stroke:none;stroke-width:2;stroke-linecap:square;stroke-linejoin:miter;stroke-miterlimit:4;stroke-dasharray:none;stroke-dashoffset:1;stroke-opacity:1" d="M4 4v16h2V6h14V4H6z" id="rect5234-8" sodipodi:nodetypes="ccccccccc"/><path inkscape:connector-curvature="0" style="display:inline;opacity:1;fill:#373737;fill-opacity:1;stroke:none;stroke-width:2;stroke-linecap:square;stroke-linejoin:miter;stroke-miterlimit:4;stroke-dasharray:none;stroke-dashoffset:1;stroke-opacity:1" d="M0 0v6h2V2h4V0H2z" id="rect5234-8-1" sodipodi:nodetypes="ccccccccc"/><path inkscape:connector-curvature="0" style="display:inline;opacity:1;fill:#373737;fill-opacity:1;stroke:none;stroke-width:2;stroke-linecap:square;stroke-linejoin:miter;stroke-miterlimit:4;stroke-dasharray:none;stroke-dashoffset:1;stroke-opacity:1" d="M32 0v6h-2V2h-4V0h4z" id="rect5234-8-1-9" sodipodi:nodetypes="ccccccccc"/><path inkscape:connector-curvature="0" style="display:inline;opacity:1;fill:#373737;fill-opacity:1;stroke:none;stroke-width:2;stroke-linecap:square;stroke-linejoin:miter;stroke-miterlimit:4;stroke-dasharray:none;stroke-dashoffset:1;stroke-opacity:1" d="M0 32v-6h2v4h4v2H2z" id="rect5234-8-1-1" sodipodi:nodetypes="ccccccccc"/><path inkscape:connector-curvature="0" style="display:inline;opacity:1;fill:#373737;fill-opacity:1;stroke:none;stroke-width:2;stroke-linecap:square;stroke-linejoin:miter;stroke-miterlimit:4;stroke-dasharray:none;stroke-dashoffset:1;stroke-opacity:1" d="M32 32v-6h-2v4h-4v2h4z" id="rect5234-8-1-9-9" sodipodi:nodetypes="ccccccccc"/></g></svg>
